svgs/sharp-light/chart-gantt.svg

<svg xmlns="http://www.w3.org/2000/svg" viewBox="0 0 512 512"><!--! Font Awesome Pro 6.6.0 by @fontawesome - https://fontawesome.com License - https://fontawesome.com/license (Commercial License) Copyright 2024 Fonticons, Inc. --><path d="M32 32l0 16 0 400 464 0 16 0 0 32-16 0L16 480 0 480l0-16L0 48 0 32l32 0zm96 96l16 0 128 0 16 0 0 32-16 0-128 0-16 0 0-32zm80 96l160 0 16 0 0 32-16 0-160 0-16 0 0-32 16 0zm160 96l96 0 16 0 0 32-16 0-96 0-16 0 0-32 16 0z"/></svg>

<svg xmlns="http://www.w3.org/2000/svg" viewBox="0 0 512 512"><!--! Font Awesome Pro 6.4.0 by @fontawesome - https://fontawesome.com License - https://fontawesome.com/license (Commercial License) Copyright 2023 Fonticons, Inc. --><path d="M32 32V48 448H496h16v32H496 16 0V464 48 32H32zm96 96l16 0 128 0 16 0 0 32-16 0-128 0-16 0 0-32zm80 96H368h16v32H368 208 192V224h16zm160 96h96 16v32H464 368 352V320h16z"/></svg>
